public/weather-icons/rain.svg

<svg width="85" height="70" viewBox="0 0 85 70" fill="none" xmlns="http://www.w3.org/2000/svg">
<g clip-path="url(#clip0_3430_1562)">
<path d="M61.5201 42.1201H9.42005C7.24005 42.1201 4.34005 40.4001 3.51005 38.5301C2.6046 37.1199 2.08957 35.4948 2.01754 33.8205C1.94551 32.1462 2.31906 30.4828 3.10005 29.0001C4.01597 27.3519 5.3884 26.0032 7.05238 25.1162C8.71637 24.2292 10.6011 23.8417 12.4801 24.0001C14.0501 24.0801 14.3701 23.5101 14.5701 22.2001C15.3698 17.2595 17.7004 12.6947 21.2331 9.14943C24.7658 5.60417 29.3224 3.2574 34.2601 2.4401H34.3801C39.9446 1.65898 45.6069 2.85513 50.3801 5.8201C50.8501 6.1101 51.3201 6.4201 51.7801 6.8201C54.4051 8.79938 56.6025 11.2893 58.2401 14.1401L59.0001 15.3401" fill="white"/>
<path d="M36.7002 28.9999C37.0001 26.8789 37.9525 24.9038 39.4254 23.3485C40.8983 21.7932 42.8187 20.7347 44.9202 20.3199C45.5822 20.22 46.2507 20.1699 46.9202 20.1699C49.5794 20.1692 52.1432 21.1605 54.1102 22.9499C55.4933 24.2283 56.4939 25.8659 57.0002 27.6799" fill="white"/>
<path d="M50.77 20.7799C53.77 16.1399 60.72 14.4299 66.26 15.5699C68.6963 16.0198 70.9452 17.1797 72.7244 18.9037C74.5035 20.6277 75.7336 22.839 76.26 25.2599C76.96 28.2599 77.19 29.4799 79.55 31.1099C82.91 33.4399 82.67 38.6499 79.95 41.1099C79.2199 41.7252 78.3043 42.0773 77.35 42.1099H59.35" fill="white"/>
<path d="M67.9004 62.0103L61.6904 67.8903" stroke="#5063F0" stroke-width="3" stroke-miterlimit="10" stroke-linecap="round"/>
<path d="M25.6805 62.0103L19.4805 67.8903" stroke="#5063F0" stroke-width="3" stroke-miterlimit="10" stroke-linecap="round"/>
<path d="M46.7903 62.0103L40.5903 67.8903" stroke="#5063F0" stroke-width="3" stroke-miterlimit="10" stroke-linecap="round"/>
<path d="M67.9004 49.2202L61.6904 55.1002" stroke="#5063F0" stroke-width="3" stroke-miterlimit="10" stroke-linecap="round"/>
<path d="M25.6805 49.2202L19.4805 55.1002" stroke="#5063F0" stroke-width="3" stroke-miterlimit="10" stroke-linecap="round"/>
<path d="M46.7903 49.2202L40.5903 55.1002" stroke="#5063F0" stroke-width="3" stroke-miterlimit="10" stroke-linecap="round"/>
<path d="M74.2672 41.9401H9.42024C7.24024 41.9401 4.34024 40.2201 3.51024 38.3601C2.60117 36.9458 2.08417 35.3153 2.01213 33.6356C1.9401 31.9558 2.3156 30.2871 3.10024 28.8001C4.01616 27.1519 5.38858 25.8032 7.05257 24.9162C8.71655 24.0293 10.6013 23.6417 12.4802 23.8001C14.0502 23.8801 14.3702 23.3101 14.5702 22.0101C15.3719 17.0714 17.7034 12.5087 21.2359 8.96543C24.7685 5.42212 29.3239 3.07681 34.2602 2.2601H34.3802C39.9446 1.48585 45.6045 2.68151 50.3802 5.6401C50.8502 5.9301 51.3202 6.2501 51.7802 6.6401C54.403 8.62181 56.6 11.1113 58.2402 13.9601L59.0002 15.1601" stroke="white" stroke-width="4" stroke-miterlimit="10"/>
<path d="M36.7002 28.7902C37.0006 26.6705 37.9534 24.6968 39.4264 23.1432C40.8994 21.5895 42.8195 20.533 44.9202 20.1202C45.6089 20.0213 46.3047 19.9812 47.0002 20.0002C49.6614 19.9983 52.2268 20.9937 54.1902 22.7902C55.5442 24.0703 56.5169 25.7006 57.0002 27.5002" stroke="white" stroke-width="4" stroke-miterlimit="10"/>
<path d="M50.77 20.6101C53.77 15.9601 60.72 14.2501 66.26 15.3901C68.6957 15.8413 70.944 17.0015 72.723 18.7253C74.5019 20.4492 75.7324 22.6598 76.26 25.0801C76.96 28.1401 77.19 29.3001 79.55 30.9401C82.91 33.2601 82.67 38.4701 79.95 40.9401C79.2199 41.5554 78.3043 41.9076 77.35 41.9401H74" stroke="white" stroke-width="4" stroke-miterlimit="10"/>
</g>
<defs>
<clipPath id="clip0_3430_1562">
<rect width="84.06" height="69.39" fill="white"/>
</clipPath>
</defs>
</svg>

<svg xmlns="http://www.w3.org/2000/svg" viewBox="0 0 84.06 69.39"><defs><style>.cls-1{fill:#cae3f6;}.cls-2,.cls-3{fill:none;stroke-miterlimit:10;}.cls-2{stroke:#000;stroke-linecap:round;stroke-width:3px;}.cls-3{stroke:#0a0b0b;stroke-width:4px;}</style></defs><title>rainAsset 162colored</title><g id="Layer_2" data-name="Layer 2"><g id="Layer_1-2" data-name="Layer 1"><path class="cls-1" d="M61.52,42.12H9.42c-2.18,0-5.08-1.72-5.91-3.59A9.47,9.47,0,0,1,3.1,29a9.79,9.79,0,0,1,9.38-5c1.57.08,1.89-.49,2.09-1.8A23.9,23.9,0,0,1,34.26,2.44l.12,0a24,24,0,0,1,16,3.38c.47.29.94.6,1.4,1a24.37,24.37,0,0,1,6.46,7.32L59,15.34"/><path class="cls-1" d="M36.7,29a10.32,10.32,0,0,1,8.22-8.68,13.4,13.4,0,0,1,2-.15,10.68,10.68,0,0,1,7.19,2.78A10.16,10.16,0,0,1,57,27.68"/><path class="cls-1" d="M50.77,20.78c3-4.64,9.95-6.35,15.49-5.21a12.57,12.57,0,0,1,10,9.69c.7,3,.93,4.22,3.29,5.85,3.36,2.33,3.12,7.54.4,10a4.26,4.26,0,0,1-2.6,1h-18"/><line class="cls-1" x1="65.18" y1="42.11" x2="70.57" y2="42.11"/><line class="cls-2" x1="67.9" y1="62.01" x2="61.69" y2="67.89"/><line class="cls-2" x1="25.68" y1="62.01" x2="19.48" y2="67.89"/><line class="cls-2" x1="46.79" y1="62.01" x2="40.59" y2="67.89"/><line class="cls-2" x1="67.9" y1="49.22" x2="61.69" y2="55.1"/><line class="cls-2" x1="25.68" y1="49.22" x2="19.48" y2="55.1"/><line class="cls-2" x1="46.79" y1="49.22" x2="40.59" y2="55.1"/><path class="cls-3" d="M61.52,41.94H9.42c-2.18,0-5.08-1.72-5.91-3.58A9.49,9.49,0,0,1,3.1,28.8a9.79,9.79,0,0,1,9.38-5c1.57.08,1.89-.49,2.09-1.79A23.9,23.9,0,0,1,34.26,2.26l.12,0a24.08,24.08,0,0,1,16,3.38c.47.29.94.61,1.4,1a24.49,24.49,0,0,1,6.46,7.32L59,15.16"/><path class="cls-3" d="M36.7,28.79a10.31,10.31,0,0,1,8.22-8.67A12.28,12.28,0,0,1,47,20a10.64,10.64,0,0,1,7.19,2.79A10.08,10.08,0,0,1,57,27.5"/><path class="cls-3" d="M50.77,20.61c3-4.65,9.95-6.36,15.49-5.22a12.58,12.58,0,0,1,10,9.69c.7,3.06.93,4.22,3.29,5.86,3.36,2.32,3.12,7.53.4,10a4.26,4.26,0,0,1-2.6,1H74"/><line class="cls-3" x1="65.18" y1="41.93" x2="70.57" y2="41.93"/></g></g></svg>
